X:219
T:Devaney's Goat
R:reel
Z:Transcribed by Dave Marshall
M:C|
K:D
|: DFAB A2FA | dffe dBAF | DFAF BFAF | ~E3D EGFE |
DFAB A2FA | dffe dBAf | efdB AFBF | AFEG FDD2 :| 
|: faab afdf | a2fd edBd | ABde fedf | (3efe df e2dB |
Ad (3ddd Adfd | edfd edBd | AddB A~F3 | AFEG FDD2 :|
